X:69
T:Braes of Mar
R:Reel
B:The Athole Collection
M:C|
L:1/8
K:D
A|d3f (3ddd df|BEBA BEEc|dcde defg|a(AA)F E2D:|
G|FAAc dBAF|GBAF EFGE|F(AA)B ABde|fdgf e2dA|F(AA)c dBAF|
GBAF EFGE|F(AA)B ABde|fdgf faef||

